X:144
T:Can't Ye Dance The Polka (Smith)
M:2/4
L:1/8
Q:1/4=160
K:C
G|\
CE GG|(FA) cc|EG FE|D3 C/C/|
CC cc|cc FF|AA GE|CD EF|
G3 C|F A3|G2 F2|E C3|
c3 G|BA F2|G>G FB,|D C2||
